svgs/thin/hand-point-down.svg

<svg xmlns="http://www.w3.org/2000/svg" viewBox="0 0 448 512"><!-- Font Awesome Pro 6.0.0-alpha2 by @fontawesome - https://fontawesome.com License - https://fontawesome.com/license (Commercial License) --><path d="M220.422 202.023C222.691 196.449 224 190.381 224 184C224 157.531 202.469 136 176 136H128C123.594 136 120 139.578 120 144S123.594 152 128 152H176C193.656 152 208 166.359 208 184S193.656 216 176 216H88C65.938 216 48 198.062 48 176V97.078C48 83 55.656 70.031 68 63.234L131.625 28.141C146 20.203 162.312 16 178.75 16H306.688C357.875 16 399.75 57.641 400 108.844V136C400 140.422 403.594 144 408 144S416 140.422 416 136V108.797C415.688 48.781 366.656 0 306.688 0H178.75C159.625 0 140.625 4.891 123.875 14.141L60.25 49.234C42.844 58.844 32 77.172 32 97.078V176C32 204.137 52.932 227.27 80 231.191V464C80 490.469 101.531 512 128 512S176 490.469 176 464V363.516C184.512 371.191 195.662 376 208 376C230.854 376 249.953 359.918 254.764 338.496C263.398 346.818 275.086 352 288 352C310.9 352 330.041 335.857 334.803 314.371C343.436 322.672 355.105 327.844 368 327.844C394.469 327.844 416 306.312 416 279.844V208.047C416 181.578 394.469 160.047 368 160.047C345.105 160.047 325.969 176.186 321.201 197.664C312.568 189.359 300.896 184.188 288 184.188C267.352 184.188 249.865 197.361 243.104 215.689C237.059 209.164 229.254 204.408 220.422 202.023ZM336 279.844V208.047C336 190.406 350.344 176.047 368 176.047S400 190.406 400 208.047V279.844C400 297.484 385.656 311.844 368 311.844S336 297.484 336 279.844ZM256 304V232.188C256 214.547 270.344 200.188 288 200.188S320 214.547 320 232.188V304C320 321.641 305.656 336 288 336S256 321.641 256 304ZM96 232H162.953C161.1 237.15 160 242.562 160 248.188V464C160 481.641 145.656 496 128 496S96 481.641 96 464V232ZM240 248.188V328C240 345.641 225.656 360 208 360S176 345.641 176 328V248.188C176 242.158 177.965 236.531 181.098 231.484C192.795 230.227 203.227 224.908 210.879 216.77C227.119 218.299 240 231.566 240 248.188Z"/></svg>

<svg xmlns="http://www.w3.org/2000/svg" viewBox="0 0 448 512"><!--! Font Awesome Pro 6.3.0 by @fontawesome - https://fontawesome.com License - https://fontawesome.com/license (Commercial License) Copyright 2023 Fonticons, Inc. --><path d="M220.4 202C222.7 196.4 224 190.4 224 184c0-26.47-21.53-48-48-48H128c-4.406 0-8 3.578-8 8S123.6 152 128 152h48c17.66 0 32 14.36 32 32s-14.34 32-32 32H88C65.94 216 48 198.1 48 176V97.08c0-14.08 7.656-27.05 20-33.84l63.63-35.09C145.1 20.2 162.3 16 178.8 16h127.9C357.9 16 399.8 57.64 400 108.8V136c0 4.422 3.594 8 8 8S416 140.4 416 136V108.8C415.7 48.78 366.7 0 306.7 0H178.8C159.6 0 140.6 4.891 123.9 14.14L60.25 49.23C42.84 58.84 32 77.17 32 97.08V176c0 28.14 20.93 51.27 48 55.19V464C80 490.5 101.5 512 128 512s48-21.53 48-48v-100.5C184.5 371.2 195.7 376 208 376c22.85 0 41.95-16.08 46.76-37.5C263.4 346.8 275.1 352 288 352c22.9 0 42.04-16.14 46.8-37.63c8.633 8.301 20.3 13.47 33.2 13.47c26.47 0 48-21.53 48-48V208c0-26.47-21.53-48-48-48c-22.89 0-42.03 16.14-46.8 37.62C312.6 189.4 300.9 184.2 288 184.2c-20.65 0-38.13 13.17-44.9 31.5C237.1 209.2 229.3 204.4 220.4 202zM336 279.8V208c0-17.64 14.34-31.98 32-31.98s32 14.36 32 32v71.8c0 17.64-14.34 32-32 32S336 297.5 336 279.8zM256 304V232.1c0-17.64 14.34-31.91 32-31.91s32 14.27 32 31.91V304c0 17.64-14.34 32-32 32S256 321.6 256 304zM96 232h66.95C161.1 237.2 160 242.6 160 248.2V464c0 17.64-14.34 32-32 32s-32-14.36-32-32V232zM240 248.2V328c0 17.64-14.34 32-32 32s-32-14.36-32-32V248.2c0-6.029 1.965-11.66 5.098-16.7c11.7-1.258 22.13-6.576 29.78-14.71C227.1 218.3 240 231.6 240 248.2z"/></svg>
